X:165
T: "Der Guckkasten"
N: Z0164
O: Europa, Mitteleuropa, Deutschland, Sued - Deutschland
R: Erzaehlung, lustige Romanze
M: 2/4
L: 1/16
K: G
D2 | G3AB3G | A2A2d3
c | B3AG2B2 | F2A2D2
D2 | G3AB2G2 | A2A2d2
d2 | d2c2B2A2 | A2A2G2z2 |
BABcd4 | BABcd4 |
cdcBABAG | F2A2D4 |
BABcd4 | BABcd4 |
cBAGFGAF | G2B2G2

@@@ Tune index: 9923
